assets/icons/actions/delete.svg

<svg viewBox="0 0 24 24" xmlns="http://www.w3.org/2000/svg">
<path d="M7 21C6.45 21 5.97933 20.8043 5.588 20.413C5.196 20.021 5 19.55 5 19V6C4.71667 6 4.479 5.90433 4.287 5.713C4.09567 5.521 4 5.28333 4 5C4 4.71667 4.09567 4.479 4.287 4.287C4.479 4.09567 4.71667 4 5 4H9C9 3.71667 9.096 3.479 9.288 3.287C9.47933 3.09567 9.71667 3 10 3H14C14.2833 3 14.521 3.09567 14.713 3.287C14.9043 3.479 15 3.71667 15 4H19C19.2833 4 19.5207 4.09567 19.712 4.287C19.904 4.479 20 4.71667 20 5C20 5.28333 19.904 5.521 19.712 5.713C19.5207 5.90433 19.2833 6 19 6V19C19 19.55 18.8043 20.021 18.413 20.413C18.021 20.8043 17.55 21 17 21H7ZM9 16C9 16.2833 9.096 16.5207 9.288 16.712C9.47933 16.904 9.71667 17 10 17C10.2833 17 10.521 16.904 10.713 16.712C10.9043 16.5207 11 16.2833 11 16V9C11 8.71667 10.9043 8.479 10.713 8.287C10.521 8.09567 10.2833 8 10 8C9.71667 8 9.47933 8.09567 9.288 8.287C9.096 8.479 9 8.71667 9 9V16ZM13 16C13 16.2833 13.096 16.5207 13.288 16.712C13.4793 16.904 13.7167 17 14 17C14.2833 17 14.521 16.904 14.713 16.712C14.9043 16.5207 15 16.2833 15 16V9C15 8.71667 14.9043 8.479 14.713 8.287C14.521 8.09567 14.2833 8 14 8C13.7167 8 13.4793 8.09567 13.288 8.287C13.096 8.479 13 8.71667 13 9V16Z" fill="inherit"/>
</svg>

<svg viewBox="0 0 24 24" xmlns="http://www.w3.org/2000/svg"><path d="M7 21a2 2 0 0 1-1.4-.6A2 2 0 0 1 5 19V6a1 1 0 0 1-.7-.3A1 1 0 0 1 4 5c0-.3.1-.5.3-.7.2-.2.4-.3.7-.3h4c0-.3.1-.5.3-.7.2-.2.4-.3.7-.3h4c.3 0 .5.1.7.3.2.2.3.4.3.7h4c.3 0 .5.1.7.3.2.2.3.4.3.7 0 .3-.1.5-.3.7a1 1 0 0 1-.7.3v13c0 .6-.2 1-.6 1.4a2 2 0 0 1-1.4.6H7Zm2-5c0 .3.1.5.3.7.2.2.4.3.7.3.3 0 .5-.1.7-.3.2-.2.3-.4.3-.7V9a1 1 0 0 0-.3-.7A1 1 0 0 0 10 8a1 1 0 0 0-.7.3A1 1 0 0 0 9 9v7Zm4 0c0 .3.1.5.3.7.2.2.4.3.7.3.3 0 .5-.1.7-.3.2-.2.3-.4.3-.7V9a1 1 0 0 0-.3-.7A1 1 0 0 0 14 8a1 1 0 0 0-.7.3 1 1 0 0 0-.3.7v7Z" fill="inherit"/></svg>
